src/lib/packages/icons/src/assets/filled/dislike-circle.svg

<svg width="24" height="24" viewBox="0 0 24 24" fill="none" xmlns="http://www.w3.org/2000/svg">
<path d="M12 2C6.477 2 2 6.477 2 12C2 17.523 6.477 22 12 22C17.523 22 22 17.523 22 12C22 6.477 17.523 2 12 2ZM14 13.312C14 13.344 13.995 13.375 13.985 13.406L12.9 16.71C12.77 17.05 12.45 17.25 12.11 17.25C11.95 17.25 11.79 17.21 11.65 17.11C11.21 16.82 10.95 16.32 10.95 15.79V14.08H8.88C7.3 14.08 7.04 13.02 7.38 12L8.43994 8.83002C8.64994 8.19002 8.87994 7.75 9.93994 7.75H13.7C13.866 7.75 14 7.88399 14 8.04999V13.312ZM16.75 12.24C16.75 12.675 16.395 13.03 15.96 13.03H15.3C15.134 13.03 15 12.896 15 12.73V8.04999C15 7.88399 15.134 7.75 15.3 7.75H15.96C16.396 7.75 16.75 8.10398 16.75 8.53998V12.24Z" fill="currentColor"/>
</svg>

<svg xmlns="http://www.w3.org/2000/svg" width="24" height="24" fill="none"><path fill="currentColor" d="M12 2C6.477 2 2 6.477 2 12s4.477 10 10 10 10-4.477 10-10S17.523 2 12 2Zm2 11.312a.303.303 0 0 1-.015.094L12.9 16.71a.84.84 0 0 1-.79.54c-.16 0-.32-.04-.46-.14-.44-.29-.7-.79-.7-1.32v-1.71H8.88c-1.58 0-1.84-1.06-1.5-2.08l1.06-3.17c.21-.64.44-1.08 1.5-1.08h3.76a.3.3 0 0 1 .3.3v5.262Zm2.75-1.072c0 .435-.355.79-.79.79h-.66a.3.3 0 0 1-.3-.3V8.05a.3.3 0 0 1 .3-.3h.66a.79.79 0 0 1 .79.79v3.7Z"/></svg>
